X: 18001
T: Hughie Travers'
R: jig
M: 6/8
K: Gmajor
B|:dBA B3|dBG A3|GB/c/d g3|edB A3|
dBA B3|dBG A3|GB/c/d g3|edB G2:|
A|:Bdd edd|gdd e2g|GB/c/d g3|edB A3|
Bdd edd|gdd e2g|GB/c/d g3|edB G2a|
bag agf|gdd e2g|GB/c/d g3|edB A2B|
dBA B3|dBG A3|GB/c/d g3|edB G2||

